svg/600/rounded/aod_tablet-fill.svg

<svg xmlns="http://www.w3.org/2000/svg" width="48" height="48" viewBox="0 -960 960 960"><path d="M106.218-145.869q-32.914 0-56.066-23.152-23.153-23.153-23.153-56.066v-509.826q0-32.913 23.153-56.348 23.152-23.435 56.066-23.435h747.564q32.914 0 56.066 23.435 23.153 23.435 23.153 56.348v509.826q0 32.913-23.153 56.066-23.152 23.152-56.066 23.152H106.218Zm90-79.218h567.564v-509.826H196.218v509.826ZM340-500.391q-11.957 0-20.783-8.826T310.391-530q0-11.957 8.826-20.783T340-559.609h280q11.957 0 20.783 8.826T649.609-530q0 11.957-8.826 20.783T620-500.391H340Zm40 120q-11.957 0-20.783-8.826T350.391-410q0-11.957 8.826-20.783T380-439.609h200q11.957 0 20.783 8.826T609.609-410q0 11.957-8.826 20.783T580-380.391H380Z"/></svg>

<svg xmlns="http://www.w3.org/2000/svg" width="48" height="48" viewBox="0 -960 960 960"><path d="M106.22-145.87q-32.92 0-56.07-23.15T27-225.09v-509.82q0-32.92 23.15-56.35 23.15-23.44 56.07-23.44h747.56q32.92 0 56.07 23.44Q933-767.83 933-734.91v509.82q0 32.92-23.15 56.07t-56.07 23.15H106.22Zm90-79.22h567.56v-509.82H196.22v509.82ZM340-500.39q-11.96 0-20.78-8.83-8.83-8.82-8.83-20.78t8.83-20.78q8.82-8.83 20.78-8.83h280q11.96 0 20.78 8.83 8.83 8.82 8.83 20.78t-8.83 20.78q-8.82 8.83-20.78 8.83H340Zm40 120q-11.96 0-20.78-8.83-8.83-8.82-8.83-20.78t8.83-20.78q8.82-8.83 20.78-8.83h200q11.96 0 20.78 8.83 8.83 8.82 8.83 20.78t-8.83 20.78q-8.82 8.83-20.78 8.83H380Z"/></svg>
